X: 117
T: Hambleton's Rant
T: Longways for as many as will.
%R: strathspey
B: Daniel Wright "Wright's Compleat Collection of Celebrated Country Dances" 1740 p.59
S: http://library.efdss.org/cgi-bin/dancebooks.cgi
Z: 2014 John Chambers <jc:trillian.mit.edu>
M: C|
L: 1/16
K: G
% - - - - - - - - - - - - - - - - - - - - - - - - -
[|\
GGG2 Bcd2 B3AG3c | A3GF2f2 A3GF2A2 |\
GGG2 Bcd2 B3AG3c | A2F2c2G2 G4d4 |]
[|\
B2d2 d2ef g2d2 BcdB | g2d2 Bcd2 f2c2 ABc2 |\
B2d2 d2ef gfed edcB | cBAG A2F2 G4 e4 |]
% - - - - - - - - - - - - - - - - - - - - - - - - -
%%begintext align
%% The two Men take hands and fall back then meet
%% their Partners and turn S. the two We. doin[g]
%% the like afterwards  All four take Hands &
%% go half round and turn S. then half round
%% and back again then the double figure and
%% the 1st Cu. lead down the middle.
%%endtext
% - - - - - - - - - - - - - - - - - - - - - - - - -
%%sep 2 4 300
